!!!SOCIAL_FUNCTION:	dream songs
!!!PDT:	1929
!!!OTL: No_152_Dream_Song_of_a_Captive_Woman.krn
!!!REG: Southwest
!!!LANG: Non-Tone
!!!LING_GROUP: Uto-Aztecan
**kern
*staff1
*clefF4
*k[b-e-a-d-]
*M2/4
4E-\
=1
4B-\
4B-\
=2
2B-\
=3
4B-\
8A-\L
8F\J
=4
2A-\
=5
8A-\L
8F\J
4r
=6
4B-\
4B-\
=7
4B-\
4A-\
=8
2F\
=9
4F\
4E-\
=10
4C/
4F\
=11
4F\
8E-/L
8C/J
=12
2E-\
=13
8E-/L
8C/J
8C/
8r
=14
4A-\
4A-\
=15
4F\
8E-/L
8C/J
=16
2F\
=17
4.E-\
8C/
=18
8.F\L
16F\Jk
4F\
=19
4E-\
4C/
=20
4BB-/
4E-\
=21
2E-\
=22
4C/
4E-\
=23
2E-\
==
*-
